src/Components/Header/Croix.svg

<svg aria-hidden="true" focusable="false" data-prefix="fas" data-icon="times" class="svg-inline--fa fa-times fa-w-11" role="img" xmlns="http://www.w3.org/2000/svg" viewBox="0 0 352 512"><path fill="white" d="M242.72 256l100.07-100.07c12.28-12.28 12.28-32.19 0-44.48l-22.24-22.24c-12.28-12.28-32.19-12.28-44.48 0L176 189.28 75.93 89.21c-12.28-12.28-32.19-12.28-44.48 0L9.21 111.45c-12.28 12.28-12.28 32.19 0 44.48L109.28 256 9.21 356.07c-12.28 12.28-12.28 32.19 0 44.48l22.24 22.24c12.28 12.28 32.2 12.28 44.48 0L176 322.72l100.07 100.07c12.28 12.28 32.2 12.28 44.48 0l22.24-22.24c12.28-12.28 12.28-32.19 0-44.48L242.72 256z"></path></svg>

<svg xmlns="http://www.w3.org/2000/svg" viewBox="0 0 352 512" width="352" height="512">
	<style>
		tspan { white-space:pre }
		.shp0 { fill: #82ccdd } 
	</style>
	<path id="Layer" class="shp0" d="M242.72 256L342.79 155.93C355.07 143.65 355.07 123.74 342.79 111.45L320.55 89.21C308.27 76.93 288.36 76.93 276.07 89.21L176 189.28L75.93 89.21C63.65 76.93 43.74 76.93 31.45 89.21L9.21 111.45C-3.07 123.73 -3.07 143.64 9.21 155.93L109.28 256L9.21 356.07C-3.07 368.35 -3.07 388.26 9.21 400.55L31.45 422.79C43.73 435.07 63.65 435.07 75.93 422.79L176 322.72L276.07 422.79C288.35 435.07 308.27 435.07 320.55 422.79L342.79 400.55C355.07 388.27 355.07 368.36 342.79 356.07L242.72 256Z" />
</svg>
